assets/img/braze_icons/music-note-plus.svg

<svg fill="none" height="24" viewBox="0 0 24 24" width="24" xmlns="http://www.w3.org/2000/svg"><g fill="#801ed7"><path d="m16.2779 2.80076c.2738.10696.5964.26831.948.44416l3.7213 1.86063c.494.24699.6942.84767.4472 1.34165-.247.49397-.8476.6942-1.3416.44721l-3.6845-1.84223c-.4008-.2004-.6402-.31899-.8181-.38849l-.0287-.01095-.0031.03061c-.0174.1902-.0184.45737-.0184.90549v12.41116.0032c-.0017 2.2077-1.7919 3.9968-4 3.9968-2.20914 0-4-1.7909-4-4s1.79086-4 4-4c.7286 0 1.4117.1948 2 .5351v-8.98743c0-.39312-.0001-.75387.0267-1.04662.0276-.3015.0932-.68453.3344-1.02932.3153-.4508.8024-.75183 1.3466-.83224.4162-.06149.7882.05112 1.0702.16127z"/><path d="m6.5 3c.55228 0 1 .44772 1 1v2h2c.5523 0 1 .44772 1 1s-.4477 1-1 1h-2v2c0 .5523-.44772 1-1 1s-1-.4477-1-1v-2h-2c-.55228 0-1-.44772-1-1s.44772-1 1-1h2v-2c0-.55228.44772-1 1-1z"/></g></svg>

<svg width="24" height="24" viewBox="0 0 24 24" fill="none" xmlns="http://www.w3.org/2000/svg">
<path d="M16.2779 2.80076C16.5517 2.90772 16.8743 3.06907 17.2259 3.24492L20.9472 5.10555C21.4412 5.35254 21.6414 5.95322 21.3944 6.4472C21.1474 6.94117 20.5468 7.1414 20.0528 6.89441L16.3683 5.05218C15.9675 4.85178 15.7281 4.73319 15.5502 4.66369L15.5215 4.65274L15.5184 4.68335C15.501 4.87355 15.5 5.14072 15.5 5.58884V18L15.5 18.0032C15.4983 20.2109 13.7081 22 11.5 22C9.29086 22 7.5 20.2091 7.5 18C7.5 15.7909 9.29086 14 11.5 14C12.2286 14 12.9117 14.1948 13.5 14.5351L13.5 5.54767C13.5 5.15455 13.4999 4.7938 13.5267 4.50105C13.5543 4.19955 13.6199 3.81652 13.8611 3.47173C14.1764 3.02093 14.6635 2.7199 15.2077 2.63949C15.6239 2.578 15.9959 2.69061 16.2779 2.80076Z" fill="#801ED7"/>
<path d="M6.5 3C7.05228 3 7.5 3.44772 7.5 4V6H9.5C10.0523 6 10.5 6.44772 10.5 7C10.5 7.55228 10.0523 8 9.5 8H7.5V10C7.5 10.5523 7.05228 11 6.5 11C5.94772 11 5.5 10.5523 5.5 10V8H3.5C2.94772 8 2.5 7.55228 2.5 7C2.5 6.44772 2.94772 6 3.5 6H5.5V4C5.5 3.44772 5.94772 3 6.5 3Z" fill="#801ED7"/>
</svg>
